src/icons/logos/postcss.svg

<svg width="253" height="96" viewBox="0 0 253 96" fill="none" xmlns="http://www.w3.org/2000/svg">
  <path d="M25.496 25.648C31.3413 25.648 35.8853 26.864 39.128 29.296C42.3707 31.728 43.992 35.3333 43.992 40.112C43.992 45.104 42.392 48.88 39.192 51.44C36.0347 53.9573 31.7893 55.216 26.456 55.216H21.656V70H11.16V25.648H25.496ZM25.56 47.664C28.0347 47.664 29.912 47.088 31.192 45.936C32.5147 44.7413 33.176 42.8 33.176 40.112C33.176 35.4613 30.5733 33.136 25.368 33.136H21.656V47.664H25.56ZM62.1255 34.928C67.3308 34.928 71.4055 36.528 74.3495 39.728C77.2935 42.8853 78.7655 47.3227 78.7655 53.04C78.7655 56.6667 78.0828 59.8453 76.7175 62.576C75.3948 65.264 73.4748 67.3547 70.9575 68.848C68.4828 70.3413 65.5388 71.088 62.1255 71.088C56.9628 71.088 52.8882 69.5093 49.9015 66.352C46.9575 63.152 45.4855 58.6933 45.4855 52.976C45.4855 49.3493 46.1468 46.192 47.4695 43.504C48.8348 40.7733 50.7548 38.6613 53.2295 37.168C55.7468 35.6747 58.7122 34.928 62.1255 34.928ZM62.1255 42.352C60.0775 42.352 58.5415 43.2267 57.5175 44.976C56.4935 46.6827 55.9815 49.3493 55.9815 52.976C55.9815 56.688 56.4722 59.3973 57.4535 61.104C58.4775 62.8107 60.0348 63.664 62.1255 63.664C64.1735 63.664 65.7095 62.8107 66.7335 61.104C67.7575 59.3547 68.2695 56.6667 68.2695 53.04C68.2695 49.328 67.7575 46.6187 66.7335 44.912C65.7522 43.2053 64.2162 42.352 62.1255 42.352ZM96.7485 34.928C99.1805 34.928 101.463 35.2907 103.597 36.016C105.73 36.7413 107.607 37.7653 109.229 39.088L105.517 44.784C102.743 43.0347 99.9485 42.16 97.1325 42.16C95.8098 42.16 94.7858 42.3947 94.0605 42.864C93.3778 43.2907 93.0365 43.9093 93.0365 44.72C93.0365 45.36 93.1858 45.8933 93.4845 46.32C93.8258 46.704 94.4872 47.1093 95.4685 47.536C96.4498 47.9627 97.9645 48.4747 100.013 49.072C103.554 50.096 106.178 51.44 107.885 53.104C109.634 54.7253 110.509 56.9867 110.509 59.888C110.509 62.192 109.847 64.1973 108.525 65.904C107.202 67.568 105.389 68.848 103.085 69.744C100.781 70.64 98.2205 71.088 95.4045 71.088C92.5458 71.088 89.8792 70.64 87.4045 69.744C84.9725 68.848 82.9032 67.6107 81.1965 66.032L86.1245 60.528C88.9832 62.7467 91.9912 63.856 95.1485 63.856C96.6845 63.856 97.8792 63.5787 98.7325 63.024C99.6285 62.4693 100.077 61.68 100.077 60.656C100.077 59.8453 99.9058 59.2053 99.5645 58.736C99.2232 58.2667 98.5618 57.84 97.5805 57.456C96.5992 57.0293 95.0418 56.5173 92.9085 55.92C89.5378 54.9387 87.0205 53.5733 85.3565 51.824C83.6925 50.0747 82.8605 47.8987 82.8605 45.296C82.8605 43.3333 83.4152 41.584 84.5245 40.048C85.6765 38.4693 87.2978 37.232 89.3885 36.336C91.5218 35.3973 93.9752 34.928 96.7485 34.928ZM137.03 68.4C135.793 69.2533 134.342 69.9147 132.678 70.384C131.057 70.8533 129.435 71.088 127.814 71.088C120.39 71.0453 116.678 66.9493 116.678 58.8V43.056H111.878V36.016H116.678V28.656L126.79 27.504V36.016H134.598L133.51 43.056H126.79V58.672C126.79 60.2507 127.046 61.3813 127.558 62.064C128.07 62.7467 128.881 63.088 129.99 63.088C131.142 63.088 132.358 62.7253 133.638 62L137.03 68.4ZM158.71 24.56C161.483 24.56 163.936 24.9653 166.07 25.776C168.246 26.5867 170.294 27.8027 172.214 29.424L167.222 35.376C165.899 34.352 164.598 33.584 163.318 33.072C162.038 32.56 160.672 32.304 159.222 32.304C156.235 32.304 153.867 33.5627 152.118 36.08C150.411 38.5973 149.558 42.48 149.558 47.728C149.558 52.8907 150.411 56.7307 152.118 59.248C153.867 61.7227 156.278 62.96 159.35 62.96C160.971 62.96 162.443 62.6613 163.766 62.064C165.088 61.424 166.518 60.528 168.054 59.376L172.726 65.392C171.062 67.056 169.035 68.4213 166.646 69.488C164.299 70.5547 161.696 71.088 158.838 71.088C154.742 71.088 151.179 70.192 148.15 68.4C145.12 66.608 142.752 63.9627 141.046 60.464C139.382 56.9227 138.549 52.6773 138.549 47.728C138.549 42.9067 139.403 38.7467 141.11 35.248C142.859 31.7493 145.248 29.104 148.278 27.312C151.35 25.4773 154.827 24.56 158.71 24.56ZM191.057 24.56C194.385 24.56 197.265 25.0293 199.697 25.968C202.172 26.9067 204.412 28.336 206.417 30.256L201.553 35.952C198.524 33.4773 195.281 32.24 191.825 32.24C189.99 32.24 188.54 32.624 187.473 33.392C186.406 34.1173 185.873 35.184 185.873 36.592C185.873 37.5733 186.108 38.384 186.577 39.024C187.046 39.6213 187.878 40.1973 189.073 40.752C190.268 41.3067 192.06 41.968 194.449 42.736C198.972 44.1867 202.3 45.9787 204.433 48.112C206.566 50.2027 207.633 53.1893 207.633 57.072C207.633 59.8453 206.929 62.2987 205.521 64.432C204.113 66.5227 202.086 68.1653 199.441 69.36C196.796 70.512 193.66 71.088 190.033 71.088C186.406 71.088 183.185 70.512 180.369 69.36C177.596 68.208 175.206 66.672 173.201 64.752L178.513 58.928C180.22 60.3787 181.969 61.4667 183.761 62.192C185.596 62.9173 187.58 63.28 189.713 63.28C191.889 63.28 193.596 62.8107 194.833 61.872C196.113 60.8907 196.753 59.5467 196.753 57.84C196.753 56.7307 196.518 55.8133 196.049 55.088C195.58 54.32 194.769 53.6373 193.617 53.04C192.465 52.4427 190.801 51.8027 188.625 51.12C183.718 49.6267 180.22 47.792 178.129 45.616C176.081 43.44 175.057 40.688 175.057 37.36C175.057 34.8 175.74 32.56 177.105 30.64C178.47 28.6773 180.369 27.184 182.801 26.16C185.233 25.0933 187.985 24.56 191.057 24.56ZM226.995 24.56C230.323 24.56 233.203 25.0293 235.635 25.968C238.109 26.9067 240.349 28.336 242.354 30.256L237.491 35.952C234.461 33.4773 231.219 32.24 227.763 32.24C225.928 32.24 224.477 32.624 223.411 33.392C222.344 34.1173 221.811 35.184 221.811 36.592C221.811 37.5733 222.045 38.384 222.515 39.024C222.984 39.6213 223.816 40.1973 225.01 40.752C226.205 41.3067 227.997 41.968 230.387 42.736C234.909 44.1867 238.237 45.9787 240.371 48.112C242.504 50.2027 243.571 53.1893 243.571 57.072C243.571 59.8453 242.867 62.2987 241.458 64.432C240.051 66.5227 238.024 68.1653 235.379 69.36C232.733 70.512 229.597 71.088 225.971 71.088C222.344 71.088 219.123 70.512 216.307 69.36C213.533 68.208 211.144 66.672 209.139 64.752L214.451 58.928C216.157 60.3787 217.907 61.4667 219.699 62.192C221.533 62.9173 223.517 63.28 225.651 63.28C227.827 63.28 229.533 62.8107 230.771 61.872C232.051 60.8907 232.691 59.5467 232.691 57.84C232.691 56.7307 232.456 55.8133 231.987 55.088C231.517 54.32 230.707 53.6373 229.555 53.04C228.403 52.4427 226.739 51.8027 224.562 51.12C219.656 49.6267 216.157 47.792 214.067 45.616C212.019 43.44 210.995 40.688 210.995 37.36C210.995 34.8 211.677 32.56 213.043 30.64C214.408 28.6773 216.307 27.184 218.739 26.16C221.171 25.0933 223.923 24.56 226.995 24.56Z" fill="currentColor"/>
  </svg>

<svg xmlns="http://www.w3.org/2000/svg" width="253" height="96" fill="none">
  <path fill="currentColor"
    d="M25.496 25.648c5.845 0 10.39 1.216 13.632 3.648 3.243 2.432 4.864 6.037 4.864 10.816 0 4.992-1.6 8.768-4.8 11.328-3.157 2.517-7.403 3.776-12.736 3.776h-4.8V70H11.16V25.648h14.336Zm.064 22.016c2.475 0 4.352-.576 5.632-1.728 1.323-1.195 1.984-3.136 1.984-5.824 0-4.65-2.603-6.976-7.808-6.976h-3.712v14.528h3.904Zm36.566-12.736c5.205 0 9.28 1.6 12.224 4.8 2.944 3.157 4.416 7.595 4.416 13.312 0 3.627-.683 6.805-2.049 9.536-1.322 2.688-3.242 4.779-5.76 6.272-2.474 1.493-5.418 2.24-8.831 2.24-5.163 0-9.238-1.579-12.224-4.736-2.944-3.2-4.416-7.659-4.416-13.376 0-3.627.66-6.784 1.983-9.472 1.366-2.73 3.286-4.843 5.76-6.336 2.518-1.493 5.483-2.24 8.897-2.24Zm0 7.424c-2.048 0-3.584.875-4.608 2.624-1.025 1.707-1.537 4.373-1.537 8 0 3.712.491 6.421 1.472 8.128 1.024 1.707 2.582 2.56 4.672 2.56 2.049 0 3.585-.853 4.609-2.56 1.023-1.75 1.535-4.437 1.535-8.064 0-3.712-.512-6.421-1.535-8.128-.982-1.707-2.518-2.56-4.608-2.56Zm34.623-7.424c2.431 0 4.714.363 6.848 1.088 2.133.725 4.01 1.75 5.632 3.072l-3.712 5.696c-2.774-1.75-5.569-2.624-8.385-2.624-1.322 0-2.346.235-3.072.704-.682.427-1.023 1.045-1.023 1.856 0 .64.149 1.173.447 1.6.342.384 1.003.79 1.985 1.216.98.427 2.496.939 4.544 1.536 3.541 1.024 6.165 2.368 7.872 4.032 1.749 1.621 2.624 3.883 2.624 6.784 0 2.304-.662 4.31-1.984 6.016-1.323 1.664-3.136 2.944-5.44 3.84-2.304.896-4.864 1.344-7.68 1.344-2.86 0-5.526-.448-8-1.344-2.433-.896-4.502-2.133-6.209-3.712l4.928-5.504c2.86 2.219 5.867 3.328 9.025 3.328 1.535 0 2.73-.277 3.584-.832.895-.555 1.344-1.344 1.344-2.368 0-.81-.171-1.45-.513-1.92-.34-.47-1.002-.896-1.983-1.28-.982-.427-2.54-.939-4.672-1.536-3.371-.981-5.889-2.347-7.553-4.096-1.663-1.75-2.495-3.925-2.495-6.528 0-1.963.554-3.712 1.663-5.248 1.153-1.579 2.774-2.816 4.864-3.712 2.134-.939 4.587-1.408 7.36-1.408ZM137.03 68.4c-1.237.853-2.688 1.515-4.352 1.984a17.42 17.42 0 0 1-4.864.704c-7.424-.043-11.136-4.139-11.136-12.288V43.056h-4.8v-7.04h4.8v-7.36l10.112-1.152v8.512h7.808l-1.088 7.04h-6.72v15.616c0 1.579.256 2.71.768 3.392.512.683 1.323 1.024 2.432 1.024 1.152 0 2.368-.363 3.648-1.088l3.392 6.4Zm21.68-43.84c2.773 0 5.226.405 7.36 1.216 2.176.81 4.224 2.027 6.144 3.648l-4.992 5.952c-1.323-1.024-2.624-1.792-3.904-2.304a10.928 10.928 0 0 0-4.096-.768c-2.987 0-5.355 1.259-7.104 3.776-1.707 2.517-2.56 6.4-2.56 11.648 0 5.163.853 9.003 2.56 11.52 1.749 2.475 4.16 3.712 7.232 3.712 1.621 0 3.093-.299 4.416-.896 1.322-.64 2.752-1.536 4.288-2.688l4.672 6.016c-1.664 1.664-3.691 3.03-6.08 4.096-2.347 1.067-4.95 1.6-7.808 1.6-4.096 0-7.659-.896-10.688-2.688-3.03-1.792-5.398-4.437-7.104-7.936-1.664-3.541-2.497-7.787-2.497-12.736 0-4.821.854-8.981 2.561-12.48 1.749-3.499 4.138-6.144 7.168-7.936 3.072-1.835 6.549-2.752 10.432-2.752Zm32.347 0c3.328 0 6.208.47 8.64 1.408 2.475.939 4.715 2.368 6.72 4.288l-4.864 5.696c-3.029-2.475-6.272-3.712-9.728-3.712-1.835 0-3.285.384-4.352 1.152-1.067.725-1.6 1.792-1.6 3.2 0 .981.235 1.792.704 2.432.469.597 1.301 1.173 2.496 1.728 1.195.555 2.987 1.216 5.376 1.984 4.523 1.45 7.851 3.243 9.984 5.376 2.133 2.09 3.2 5.077 3.2 8.96 0 2.773-.704 5.227-2.112 7.36-1.408 2.09-3.435 3.733-6.08 4.928-2.645 1.152-5.781 1.728-9.408 1.728s-6.848-.576-9.664-1.728c-2.773-1.152-5.163-2.688-7.168-4.608l5.312-5.824c1.707 1.45 3.456 2.539 5.248 3.264 1.835.725 3.819 1.088 5.952 1.088 2.176 0 3.883-.47 5.12-1.408 1.28-.981 1.92-2.325 1.92-4.032 0-1.11-.235-2.027-.704-2.752-.469-.768-1.28-1.45-2.432-2.048-1.152-.597-2.816-1.237-4.992-1.92-4.907-1.493-8.405-3.328-10.496-5.504-2.048-2.176-3.072-4.928-3.072-8.256 0-2.56.683-4.8 2.048-6.72 1.365-1.963 3.264-3.456 5.696-4.48 2.432-1.067 5.184-1.6 8.256-1.6Zm35.938 0c3.328 0 6.208.47 8.64 1.408 2.474.939 4.714 2.368 6.719 4.288l-4.863 5.696c-3.03-2.475-6.272-3.712-9.728-3.712-1.835 0-3.286.384-4.352 1.152-1.067.725-1.6 1.792-1.6 3.2 0 .981.234 1.792.704 2.432.469.597 1.301 1.173 2.495 1.728 1.195.555 2.987 1.216 5.377 1.984 4.522 1.45 7.85 3.243 9.984 5.376 2.133 2.09 3.2 5.077 3.2 8.96 0 2.773-.704 5.227-2.113 7.36-1.407 2.09-3.434 3.733-6.079 4.928-2.646 1.152-5.782 1.728-9.408 1.728-3.627 0-6.848-.576-9.664-1.728-2.774-1.152-5.163-2.688-7.168-4.608l5.312-5.824c1.706 1.45 3.456 2.539 5.248 3.264 1.834.725 3.818 1.088 5.952 1.088 2.176 0 3.882-.47 5.12-1.408 1.28-.981 1.92-2.325 1.92-4.032 0-1.11-.235-2.027-.704-2.752-.47-.768-1.28-1.45-2.432-2.048-1.152-.597-2.816-1.237-4.993-1.92-4.906-1.493-8.405-3.328-10.495-5.504-2.048-2.176-3.072-4.928-3.072-8.256 0-2.56.682-4.8 2.048-6.72 1.365-1.963 3.264-3.456 5.696-4.48 2.432-1.067 5.184-1.6 8.256-1.6Z" />
</svg>
